X: 33275
T: Purple Glass, The
R: barndance
M: 4/4
K: Aminor
c2|:efec efd2|dedcB3c|A3B cedc|
BcAB cde2|efec efd2|dedcB3c|
A3B cedc|1 BcAB cde2:|2 BcAB cd_e2||
[K:Cm]
eded ced2-|dfdcB3d|c3d BdcG|
BdcB GBde|eded ced2|gfdc B3d|
c3d Bd c2|1 c4d2e2:|2 c5d2||

